humanity-icon-theme/Humanity/actions/24/go-top.svg

<?xml version="1.0" encoding="UTF-8" standalone="no"?>
<!-- Created with Inkscape (http://www.inkscape.org/) -->

<svg
   xmlns:dc="http://purl.org/dc/elements/1.1/"
   xmlns:cc="http://creativecommons.org/ns#"
   xmlns:rdf="http://www.w3.org/1999/02/22-rdf-syntax-ns#"
   xmlns:svg="http://www.w3.org/2000/svg"
   xmlns="http://www.w3.org/2000/svg"
   xmlns:xlink="http://www.w3.org/1999/xlink"
   version="1.1"
   width="24"
   height="24"
   id="svg3734">
  <metadata
     id="metadata29">
    <rdf:RDF>
      <cc:Work
         rdf:about="">
        <dc:format>image/svg+xml</dc:format>
        <dc:type
           rdf:resource="http://purl.org/dc/dcmitype/StillImage" />
        <dc:title></dc:title>
      </cc:Work>
    </rdf:RDF>
  </metadata>
  <defs
     id="defs3736">
    <linearGradient
       id="linearGradient4456">
      <stop
         id="stop4458"
         style="stop-color:#f6daae;stop-opacity:1"
         offset="0" />
      <stop
         id="stop4460"
         style="stop-color:#f0c178;stop-opacity:0"
         offset="1" />
    </linearGradient>
    <linearGradient
       id="linearGradient3390-178-986-453-4-5">
      <stop
         id="stop3624-8-6"
         style="stop-color:#bb2b12;stop-opacity:1"
         offset="0" />
      <stop
         id="stop3626-1-1"
         style="stop-color:#cd7233;stop-opacity:1"
         offset="1" />
    </linearGradient>
    <linearGradient
       x1="-31.522509"
       y1="190.51227"
       x2="-55.189419"
       y2="182.47969"
       id="linearGradient3732"
       xlink:href="#linearGradient3390-178-986-453-4-5"
       gradientUnits="userSpaceOnUse"
       gradientTransform="matrix(0.92956783,0,0,0.99594396,52.30231,-181.73954)" />
    <linearGradient
       id="linearGradient7012-661-145-733-759-865-745-661-970-94-1-0">
      <stop
         id="stop3618-1-9"
         style="stop-color:#f0c178;stop-opacity:1"
         offset="0" />
      <stop
         id="stop3270-5-6"
         style="stop-color:#e18941;stop-opacity:1"
         offset="0.5" />
      <stop
         id="stop3620-9-3"
         style="stop-color:#ec4f18;stop-opacity:1"
         offset="1" />
    </linearGradient>
    <linearGradient
       x1="-55.189419"
       y1="182.47969"
       x2="-31.522509"
       y2="191.51634"
       id="linearGradient4322"
       xlink:href="#linearGradient7012-661-145-733-759-865-745-661-970-94-1-0"
       gradientUnits="userSpaceOnUse"
       gradientTransform="matrix(0.92956783,0,0,0.99594396,52.30231,-181.73954)" />
    <linearGradient
       x1="-55.189419"
       y1="183.48376"
       x2="-31.522509"
       y2="191.51634"
       id="linearGradient4324"
       xlink:href="#linearGradient7012-661-145-733-759-865-745-661-970-94-1-0"
       gradientUnits="userSpaceOnUse"
       gradientTransform="matrix(0.92956783,0,0,0.99594396,52.30231,-181.73954)" />
    <linearGradient
       x1="-31.522509"
       y1="191.51634"
       x2="-55.189419"
       y2="182.47969"
       id="linearGradient4452"
       xlink:href="#linearGradient3390-178-986-453-4-5"
       gradientUnits="userSpaceOnUse"
       gradientTransform="matrix(0.92956783,0,0,0.99594396,52.30231,-181.73954)" />
    <linearGradient
       x1="0"
       y1="-8.8817842e-16"
       x2="22"
       y2="9"
       id="linearGradient4462"
       xlink:href="#linearGradient4456"
       gradientUnits="userSpaceOnUse"
       gradientTransform="translate(1,0)" />
    <linearGradient
       x1="0"
       y1="-8.8817842e-16"
       x2="22"
       y2="9"
       id="linearGradient3026"
       xlink:href="#linearGradient4456"
       gradientUnits="userSpaceOnUse"
       gradientTransform="translate(1,0)" />
    <linearGradient
       x1="-33.576923"
       y1="162"
       x2="-55.576923"
       y2="167"
       id="linearGradient3795"
       xlink:href="#linearGradient3390-178-986-453-4-5-3"
       gradientUnits="userSpaceOnUse" />
    <linearGradient
       id="linearGradient3390-178-986-453-4-5-3">
      <stop
         id="stop3624-8-6-3"
         style="stop-color:#bb2b12;stop-opacity:1"
         offset="0" />
      <stop
         id="stop3626-1-1-3"
         style="stop-color:#cd7233;stop-opacity:1"
         offset="1" />
    </linearGradient>
    <linearGradient
       x1="-86.552246"
       y1="185.439"
       x2="-83.37072"
       y2="197.31261"
       id="linearGradient4040-8-9-7"
       xlink:href="#linearGradient4034-59-4-2"
       gradientUnits="userSpaceOnUse"
       gradientTransform="matrix(0,-1,1,0,-272,102)" />
    <linearGradient
       id="linearGradient4034-59-4-2">
      <stop
         id="stop4036-9-1-5"
         style="stop-color:#eeeeec;stop-opacity:1"
         offset="0" />
      <stop
         id="stop4038-0-5-5"
         style="stop-color:#babdb6;stop-opacity:1"
         offset="1" />
    </linearGradient>
    <linearGradient
       x1="-89"
       y1="178"
       x2="-83.37072"
       y2="197.31261"
       id="linearGradient3965"
       xlink:href="#linearGradient7012-661-145-733-759-865-745-661-970-94-1-0-7"
       gradientUnits="userSpaceOnUse"
       gradientTransform="matrix(0,-1,1,0,-272.57692,80)" />
    <linearGradient
       id="linearGradient7012-661-145-733-759-865-745-661-970-94-1-0-7">
      <stop
         id="stop3618-1-9-8"
         style="stop-color:#f0c178;stop-opacity:1"
         offset="0" />
      <stop
         id="stop3270-5-6-3"
         style="stop-color:#e18941;stop-opacity:1"
         offset="0.5" />
      <stop
         id="stop3620-9-3-0"
         style="stop-color:#ec4f18;stop-opacity:1"
         offset="1" />
    </linearGradient>
    <linearGradient
       x1="-33.576923"
       y1="162"
       x2="-55.576923"
       y2="167"
       id="linearGradient3075"
       xlink:href="#linearGradient3390-178-986-453-4-5-3"
       gradientUnits="userSpaceOnUse" />
  </defs>
  <g
     transform="matrix(0,1,1,0,7,1)"
     id="layer1">
    <path
       d="M 8.65,-0.525 3.5,4.99993 8.65,10.525"
       id="path3169-2-3"
       style="fill:none;stroke:url(#linearGradient3732);stroke-width:5;stroke-linecap:round;stroke-linejoin:round;stroke-miterlimit:4;stroke-opacity:1;stroke-dasharray:none;display:inline;enable-background:new" />
    <path
       d="M 19,5 7.5,4.99993"
       id="path3765"
       style="fill:none;stroke:url(#linearGradient4452);stroke-width:6;stroke-linecap:round;stroke-linejoin:round;stroke-miterlimit:4;stroke-opacity:1;stroke-dasharray:none;display:inline;enable-background:new" />
    <g
       transform="matrix(1,0,0,-1,56.576924,170)"
       id="g6115-7"
       style="display:inline;enable-background:new">
      <g
         transform="translate(-1,0)"
         id="g4018-8"
         style="stroke:url(#linearGradient3795);stroke-opacity:1">
        <path
           d="m -53.576924,158 0,14"
           id="path3395-1"
           style="fill:none;stroke:url(#linearGradient3075);stroke-width:4;stroke-linecap:round;stroke-linejoin:miter;stroke-miterlimit:4;stroke-opacity:1;stroke-dasharray:none;display:inline;enable-background:new" />
      </g>
      <g
         transform="translate(39,0)"
         id="g4030-5"
         style="stroke:url(#linearGradient4040-8-9-7);display:inline;enable-background:new">
        <path
           d="m -93.576924,158 0,14"
           id="path3397-3"
           style="fill:none;stroke:url(#linearGradient3965);stroke-width:2;stroke-linecap:round;stroke-linejoin:miter;stroke-miterlimit:4;stroke-opacity:1;stroke-dasharray:none;display:inline;enable-background:new" />
      </g>
      <path
         d="m -54.670924,172.5 c -0.229201,-0.0437 -0.410112,-0.2667 -0.406,-0.5 l 0,-14"
         id="path3397-6-7"
         style="font-size:medium;font-style:normal;font-variant:normal;font-weight:normal;font-stretch:normal;text-indent:0;text-align:start;text-decoration:none;line-height:normal;letter-spacing:normal;word-spacing:normal;text-transform:none;direction:ltr;block-progression:tb;writing-mode:lr-tb;text-anchor:start;opacity:0.6;color:#000000;fill:none;stroke:#f6daae;stroke-width:1;stroke-linecap:round;stroke-opacity:1;marker:none;visibility:visible;display:inline;overflow:visible;enable-background:new;font-family:Abandoned Bitplane;-inkscape-font-specification:Abandoned Bitplane" />
    </g>
    <path
       d="M 8.75009,-0.6251675 3.5,4.99993 8.750153,10.624983"
       id="path4277"
       style="fill:none;stroke:url(#linearGradient4322);stroke-width:3;stroke-linecap:round;stroke-linejoin:round;stroke-miterlimit:4;stroke-opacity:1;stroke-dasharray:none;display:inline;enable-background:new" />
    <path
       d="M 19,5 7.5,4.99993"
       id="path4279"
       style="fill:none;stroke:url(#linearGradient4324);stroke-width:4;stroke-linecap:round;stroke-linejoin:round;stroke-miterlimit:4;stroke-opacity:1;stroke-dasharray:none;display:inline;enable-background:new" />
    <path
       d="M 3.6543955,6.7040098 7.78125,11.14375 c 1,1 3.058963,-0.06138 1.5,-1.5 L 7.5,8 C 6.4606912,7.0409186 7.5,6.5 9,6.5 l 9.5,0 c 3,0 2.5,-3 0,-3 l -9,0 C 8,3.5 6.5,3.5 7.5,2 L 9.14375,0.76875 c 1.5,-2 -0.5,-2.5 -1.5,-1.5 L 3.67518,3.3120979"
       id="path4454"
       style="opacity:0.4;fill:none;stroke:url(#linearGradient3026);stroke-width:1;stroke-linecap:round;stroke-linejoin:round;stroke-miterlimit:4;stroke-opacity:1;stroke-dasharray:none;display:inline;enable-background:new" />
    <path
       d="M 7.5,2 9.35,0.49375 c 1.5,-2 -0.5,-2.5 -1.5,-1.5 L 3.6042963,3.3762354 M 3.6119367,6.6857912 7.7125,11.28125 c 1,1 2.970198,0.02922 1.5,-1.5 L 7.5,8"
       id="path4464"
       style="opacity:0.4;fill:none;stroke:url(#linearGradient4462);stroke-width:1;stroke-linecap:round;stroke-linejoin:round;stroke-miterlimit:4;stroke-opacity:1;stroke-dasharray:none;display:inline;enable-background:new" />
    <path
       d="M 8.2625,-1.35 3.8122513,3.1742434"
       id="path4466"
       style="opacity:0.51000001;fill:none;stroke:#f6daae;stroke-width:1;stroke-linecap:round;stroke-linejoin:round;stroke-miterlimit:4;stroke-opacity:1;stroke-dasharray:none;display:inline;enable-background:new" />
  </g>
</svg>

<?xml version="1.0" encoding="UTF-8" standalone="no"?>
<!-- Created with Inkscape (http://www.inkscape.org/) -->
<svg id="svg3734" xmlns:rdf="http://www.w3.org/1999/02/22-rdf-syntax-ns#" xmlns="http://www.w3.org/2000/svg" height="24" width="24" version="1.1" xmlns:cc="http://creativecommons.org/ns#" xmlns:xlink="http://www.w3.org/1999/xlink" xmlns:dc="http://purl.org/dc/elements/1.1/">
 <metadata id="metadata29">
  <rdf:RDF>
   <cc:Work rdf:about="">
    <dc:format>image/svg+xml</dc:format>
    <dc:type rdf:resource="http://purl.org/dc/dcmitype/StillImage"/>
    <dc:title/>
   </cc:Work>
  </rdf:RDF>
 </metadata>
 <defs id="defs3736">
  <linearGradient id="linearGradient4456">
   <stop id="stop4458" style="stop-color:#f6daae" offset="0"/>
   <stop id="stop4460" style="stop-color:#f0c178;stop-opacity:0" offset="1"/>
  </linearGradient>
  <linearGradient id="linearGradient3390-178-986-453-4-5">
   <stop id="stop3624-8-6" style="stop-color:#bb2b12" offset="0"/>
   <stop id="stop3626-1-1" style="stop-color:#cd7233" offset="1"/>
  </linearGradient>
  <linearGradient id="linearGradient3732" y2="182.48" xlink:href="#linearGradient3390-178-986-453-4-5" gradientUnits="userSpaceOnUse" x2="-55.189" gradientTransform="matrix(.92957 0 0 .99594 52.302 -181.74)" y1="190.51" x1="-31.523"/>
  <linearGradient id="linearGradient7012-661-145-733-759-865-745-661-970-94-1-0">
   <stop id="stop3618-1-9" style="stop-color:#f0c178" offset="0"/>
   <stop id="stop3270-5-6" style="stop-color:#e18941" offset=".5"/>
   <stop id="stop3620-9-3" style="stop-color:#ec4f18" offset="1"/>
  </linearGradient>
  <linearGradient id="linearGradient4322" y2="191.52" xlink:href="#linearGradient7012-661-145-733-759-865-745-661-970-94-1-0" gradientUnits="userSpaceOnUse" x2="-31.523" gradientTransform="matrix(.92957 0 0 .99594 52.302 -181.74)" y1="182.48" x1="-55.189"/>
  <linearGradient id="linearGradient4324" y2="191.52" xlink:href="#linearGradient7012-661-145-733-759-865-745-661-970-94-1-0" gradientUnits="userSpaceOnUse" x2="-31.523" gradientTransform="matrix(.92957 0 0 .99594 52.302 -181.74)" y1="183.48" x1="-55.189"/>
  <linearGradient id="linearGradient4452" y2="182.48" xlink:href="#linearGradient3390-178-986-453-4-5" gradientUnits="userSpaceOnUse" x2="-55.189" gradientTransform="matrix(.92957 0 0 .99594 52.302 -181.74)" y1="191.52" x1="-31.523"/>
  <linearGradient id="linearGradient4462" y2="9" xlink:href="#linearGradient4456" gradientUnits="userSpaceOnUse" x2="22" gradientTransform="translate(1)" y1="-8.8818e-16"/>
  <linearGradient id="linearGradient3795" y2="167" xlink:href="#linearGradient3390-178-986-453-4-5" gradientUnits="userSpaceOnUse" x2="-55.577" y1="162" x1="-33.577"/>
  <linearGradient id="linearGradient4040-8-9-7" y2="197.31" gradientUnits="userSpaceOnUse" x2="-83.371" gradientTransform="matrix(0,-1,1,0,-272,102)" y1="185.44" x1="-86.552">
   <stop id="stop4036-9-1-5" style="stop-color:#eeeeec" offset="0"/>
   <stop id="stop4038-0-5-5" style="stop-color:#babdb6" offset="1"/>
  </linearGradient>
  <linearGradient id="linearGradient3965" y2="197.31" gradientUnits="userSpaceOnUse" x2="-83.371" gradientTransform="matrix(0 -1 1 0 -272.58 80)" y1="178" x1="-89">
   <stop id="stop3618-1-9-8" style="stop-color:#f0c178" offset="0"/>
   <stop id="stop3270-5-6-3" style="stop-color:#e18941" offset=".5"/>
   <stop id="stop3620-9-3-0" style="stop-color:#ec4f18" offset="1"/>
  </linearGradient>
 </defs>
 <g id="layer1" transform="matrix(0,1,1,0,7,1)">
  <path id="path3169-2-3" style="stroke-linejoin:round;stroke-width:5;stroke:url(#linearGradient3732);stroke-linecap:round;enable-background:new;fill:none" d="m8.65-0.525-5.15 5.5249 5.15 5.5251"/>
  <path id="path3765" style="stroke-linejoin:round;stroke-width:6;stroke:url(#linearGradient4452);stroke-linecap:round;enable-background:new;fill:none" d="m19 5-11.5-0.0001"/>
  <g id="g6115-7" style="enable-background:new" transform="matrix(1 0 0 -1 56.577 170)">
   <g id="g4018-8" style="stroke:url(#linearGradient3795)" transform="translate(-1)">
    <path id="path3395-1" style="enable-background:new;stroke:url(#linearGradient3795);stroke-linecap:round;stroke-width:4;fill:none" d="m-53.577 158v14"/>
   </g>
   <g id="g4030-5" style="stroke:url(#linearGradient4040-8-9-7);enable-background:new" transform="translate(39)">
    <path id="path3397-3" style="stroke-width:2;stroke:url(#linearGradient3965);stroke-linecap:round;enable-background:new;fill:none" d="m-93.577 158v14"/>
   </g>
   <path id="path3397-6-7" style="opacity:.6;enable-background:new;block-progression:tb;text-indent:0;color:#000000;stroke:#f6daae;stroke-linecap:round;text-transform:none;fill:none" d="m-54.671 172.5c-0.2292-0.0437-0.41011-0.2667-0.406-0.5v-14"/>
  </g>
  <path id="path4277" style="stroke-linejoin:round;stroke-width:3;stroke:url(#linearGradient4322);stroke-linecap:round;enable-background:new;fill:none" d="m8.7501-0.62517-5.2501 5.6251 5.2502 5.6251"/>
  <path id="path4279" style="stroke-linejoin:round;stroke-width:4;stroke:url(#linearGradient4324);stroke-linecap:round;enable-background:new;fill:none" d="m19 5-11.5-0.0001"/>
  <path id="path4454" style="opacity:.4;stroke-linejoin:round;enable-background:new;stroke:url(#linearGradient4462);stroke-linecap:round;fill:none" d="m3.6544 6.704 4.1268 4.44c1 1 3.059-0.06138 1.5-1.5l-1.7812-1.644c-1.0393-0.9591 0-1.5 1.5-1.5h9.5c3 0 2.5-3 0-3h-9c-1.5 0-3 0-2-1.5l1.6438-1.2312c1.5-2-0.5-2.5-1.5-1.5l-3.9686 4.0433"/>
  <path id="path4464" style="opacity:.4;stroke-linejoin:round;stroke:url(#linearGradient4462);stroke-linecap:round;enable-background:new;fill:none" d="m7.5 2 1.85-1.5062c1.5-2-0.5-2.5-1.5-1.5l-4.2457 4.3824m0.0076 3.3096 4.1006 4.5952c1 1 2.9702 0.02922 1.5-1.5l-1.7125-1.781"/>
  <path id="path4466" style="opacity:0.51;stroke-linejoin:round;stroke:#f6daae;stroke-linecap:round;enable-background:new;fill:none" d="m8.2625-1.35-4.4502 4.5242"/>
 </g>
</svg>
